icon_installer/data/icons/scalable/actions/show-mouse-wireless-disabled-symbolic.svg

<?xml version="1.0" encoding="UTF-8"?>
<svg height="16px" viewBox="0 0 16 16" width="16px" xmlns="http://www.w3.org/2000/svg">
    <path d="m 7 0 c -1.621094 0 -3.066406 0.78125 -3.980469 1.988281 l -1.519531 -1.519531 l -1.0625 1.0625 l 14 14 l 1.0625 -1.0625 l -1.792969 -1.792969 c 0.1875 -0.527343 0.292969 -1.089843 0.292969 -1.675781 v -6 c 0 -2.753906 -2.246094 -5 -5 -5 z m 0 2 h 2 c 1.679688 0 3 1.320312 3 3 v 5.96875 l -3.277344 -3.28125 c 0.171875 -0.175781 0.277344 -0.417969 0.277344 -0.6875 v -3 c 0 -0.554688 -0.445312 -1 -1 -1 s -1 0.445312 -1 1 v 1.96875 l -2.554688 -2.554688 c 0.523438 -0.855468 1.460938 -1.414062 2.554688 -1.414062 z m -5 3.089844 v 5.910156 c 0 2.753906 2.246094 5 5 5 h 2 c 1.097656 0 2.117188 -0.359375 2.945312 -0.964844 l -1.433593 -1.433594 c -0.445313 0.25 -0.957031 0.398438 -1.511719 0.398438 h -2 c -1.679688 0 -3 -1.320312 -3 -3 v -3.910156 z m 0 0" fill="#222222"/>
</svg>

<svg xmlns="http://www.w3.org/2000/svg" width="16" height="16"><path fill="#222" d="M7 0a4.989 4.989 0 0 0-3.98 1.988L1.5.468.438 1.532l14 14L15.5 14.47l-1.793-1.793A4.98 4.98 0 0 0 14 11.001V5c0-2.754-2.246-5-5-5zm0 2h2c1.68 0 3 1.32 3 3v5.969L8.723 7.688A.978.978 0 0 0 9 7V4c0-.555-.445-1-1-1s-1 .445-1 1v1.969L4.445 3.414A2.965 2.965 0 0 1 7 2zM2 5.09V11c0 2.754 2.246 5 5 5h2a4.98 4.98 0 0 0 2.945-.965l-1.433-1.433c-.446.25-.957.398-1.512.398H7c-1.68 0-3-1.32-3-3V7.09zm0 0"/></svg>
